!!!COM: Henri Reber
!!!CNT: Francais
!!!TXO: Francais
!!!OTL: Le Captive
!!!LYR: Victor Hugo
!!!ODT: 1837/
!!!ENC: Jacob Pegg
!!!YOR: Romantic French Song 1830-1870, David Tunley, ed., New York: Garland Publishing, Inc., 1995, vol. 3
!!NB: Vocal melody and text only encoded.
!!NB: First instance of melodic material only encoded.
**kern	**silbe
*clef G2	*
*k[f#c#g#]	*
*M3/8	*
=3	=3
{8cc#	{Si
8dd	je
8cc#	ne/-
=4	=4
4a	-tais
8a	cap-
=5	=5
4.dd	-ti-
=6	=6
4cc#}	-ve,}
8r	.
=7	=7
{4cc#	{J'ai
8ee	-me-
=8	=8
4cc#	-rais
16b	ce
16a	pa-
=9	=9
4.b}	-ys,}
=10	=10
4.r	.
=11	=11
{8cc#	{Et
8dd	cet-
8cc#	-te
=12	=12
4a	mer
8a	plain-
=13	=13
4.dd	-ti-
=14	=14
4cc#}	-ve,}
8r	.
=15	=15
{4b	{Et
8b	ces
=16	=16
4a	champs
16g#	de
16e	ma-
=17	=17
4.a}	i2s,}
=18	=18
4.r	.
=19	=19
{4b	{Et
8b	ces
=20	=20
8.b	as-
16cc#	-tres
8ee	sans
=21	=21
(4cc#	nom-
8dd#)	|
=22	=22
4b}	-bre,}
8r	.
=23	=23
{4b	{Si
8b	le
=24	=24
8.cc#	long
16b	du
8cc#	mur
=25	=25
4.dd	som-
=26	=26
4cc#}	-bre}
8r	.
=27	=27
{8cc#	{N'e/-
8cc#	-tin-
8cc#	-ce-
=28	=28
(8dd	-lait
8ee)	|
8dd	dans
=29	=29
4.b	l'om-
=30	=30
8cc#}	-bre}
8r	.
{8cc#	{Le
=31	=31
4cc#	sa-
8b	-bre
=32	=32
4a	des
(16g#	spa-
16e)	|
=33	=33
4.a}	-his.}
!!remaining 4 verses show minimal melodic variation
*-	*-
